X: 265
T: Ben Yürürüm Yâne Yâne
C: Selahaddin Pınar
O: Turkey
F: http://compmusic.upf.edu/node/140
N: neva--sarki--duyek--ben_yururum--selahaddin_pinar
N: makam= neva
N: form= sarki
N: usul= duyek = 8/4
M: 8/4
L: 1/16
K: C _2/4B ^3/4f  
Q: 1/4=144
%%MIDI tuningsystem comma53
=fe de d4 d2 B2 c2 d2  | c3/2B/ AB A2 B2 A8  | \
w:  ARANAĞME  |   | 
=fe de d4 d2 B2 c2 d2  | 
w:  ARANAĞME  | 
c3/2B/ AB A2 B2 A4 GA Bc  | d4 e2 d2 c2 B2 d4  | \
w:   |  *  Ben  yü rü *  rüm   | 
z2 e2 f2 g2 f2 ed d2 cB  | 
w:  yâ *  ne  yâ *  *  ne    | 
A4 A2 B2 c2 d2 d2 f2  | f2 f4 ed d4 d4  | \
w:  *  Aşk  bo ya *  dı   |  *  be ni  *  ka ne    | 
z4 e2 f2 g2 f2 g2 f2  | g2 a4 _b2 a2 g2 =f2 e2  | 
w:  Ne  a kı *  lem   |  ne  dî *  vâ *  ne    | 
d2 e2 c2 d2 c2 BA A4  | z2 BA B2 c2 dc BA G4  | \
w:  *  *  Gel  gör  be *  *  ni   |  aşk  *  *  ney le *  *  *  di    | 
z4 GA Bc de =fe dc BA  | 
w:  Gel  *  gör  *  be *  *  *  ni   | 
d2 dc B2 cd cB AB A4  | =fe de d4 d2 B2 c2 d2  | \
w:  aşk  ney *  *  *  *  le *  *  *  di    |  SAZ  | 
c3/2B/ AB A2 B2 A8  | 
w:   | 
=fe de d4 d2 B2 c2 d2  | c3/2B/ AB A2 B2 A4 GA _B^c  | \
w:  SAZ  |   | 
d4 ^c2 d2 e2 =fe d2 c2  | 
w:  *  Aş kın  be *  *  ni   | 
z2 g2 =f2 e2 ed d^c c4  | z4 ^c2 d2 e2 =f2 ed =c=B  | \
w:  mest_ *  ey le *  *  *  di    |  Al dı  gön *  lüm   | 
^cd cd c2 d2 c2 {e}dc =B4  | 
w:  hast_ *  *  *  *  ey le *  *  *  di    | 
z2 d4 d2 d4 g4  | g2 g4 =fe fe d^c dc _BA  | \
w:  Öl dür me ğe   |  *  kast_ ey *  le *  *  *  di    | 
_B4 ^cd e=f ed cd cB A2  | 
w:  *  Gel  *  gör  *  be *  *  *  ni   | 
z2 A4 _B^c dc BA G4  | z4 GA Bc de =fe dc BA  | 
w:  aşk  ney *  le *  *  *  di    |  Gel  *  gör  *  be *  *  *  ni   | 
d2 dc B2 cd cB AB A4  | |


